X:1049
T:Irish Jaunting Bar
C:Joe Buchanan's Scottish Tome - Page 634.2
I:634 2
Z:Carl Allison
R:Waltz
L:1/4
M:3/4
K:G
d/c/ | "G"B2 G | "G7"G A B | "C"c2 B | "D7"A2 d/c/ | "G"B2 G | "G7"D2 B, | "C"C3 | C B, C |
"G"D2 D | D B, D | G2 A | B A B | "A7"c2 A | "D7"F E F | "G"G3- | G2 G/A/ |
"G"B2 G | "G7"G A B | "C"c2 B | "D7"A2 d/c/ | "G"B2 G | "G7"D2 ^C | "C"C3 | C B, C |
"G"D>E D | D B, D | G2 A | B A B | "A7"c2 A | "D7"F E F | "G"G3 | G2 |]
